src/icons/filter.svg

<svg width="20" height="21" viewBox="0 0 20 21" fill="none" xmlns="http://www.w3.org/2000/svg">
<path d="M14.375 6.5C13.5156 6.5 12.7734 6.20052 12.1484 5.60156C11.5495 4.97656 11.25 4.23438 11.25 3.375C11.25 2.51562 11.5495 1.78646 12.1484 1.1875C12.7734 0.5625 13.5156 0.25 14.375 0.25C15.1302 0.25 15.7943 0.484375 16.3672 0.953125C16.9401 1.42188 17.2917 2.02083 17.4219 2.75H18.9844C19.2708 2.75 19.5052 2.85417 19.6875 3.0625C19.8958 3.24479 20 3.47917 20 3.76562C20 4.05208 19.8958 4.28646 19.6875 4.46875C19.5052 4.65104 19.2708 4.74219 18.9844 4.74219H17.1875C16.9271 5.26302 16.5495 5.69271 16.0547 6.03125C15.5599 6.34375 15 6.5 14.375 6.5ZM14.375 2.24219C14.0625 2.24219 13.7891 2.35938 13.5547 2.59375C13.3464 2.80208 13.2422 3.0625 13.2422 3.375C13.2422 3.6875 13.3464 3.96094 13.5547 4.19531C13.7891 4.40365 14.0625 4.50781 14.375 4.50781C14.6875 4.50781 14.9479 4.40365 15.1562 4.19531C15.3906 3.96094 15.5078 3.6875 15.5078 3.375C15.5078 3.0625 15.3906 2.80208 15.1562 2.59375C14.9479 2.35938 14.6875 2.24219 14.375 2.24219ZM1.01562 4.74219C0.729167 4.74219 0.481771 4.65104 0.273438 4.46875C0.0911458 4.28646 0 4.05208 0 3.76562C0 3.47917 0.0911458 3.24479 0.273438 3.0625C0.481771 2.85417 0.729167 2.75 1.01562 2.75H7.73438C8.02083 2.75 8.25521 2.85417 8.4375 3.0625C8.64583 3.24479 8.75 3.47917 8.75 3.76562C8.75 4.05208 8.64583 4.28646 8.4375 4.46875C8.25521 4.65104 8.02083 4.74219 7.73438 4.74219H1.01562ZM5.625 7.75C6.48438 7.75 7.21354 8.0625 7.8125 8.6875C8.4375 9.28646 8.75 10.0156 8.75 10.875C8.75 11.7344 8.4375 12.4766 7.8125 13.1016C7.21354 13.7005 6.48438 14 5.625 14C4.76562 14 4.02344 13.7005 3.39844 13.1016C2.79948 12.4766 2.5 11.7344 2.5 10.875C2.5 10.0156 2.79948 9.28646 3.39844 8.6875C4.02344 8.0625 4.76562 7.75 5.625 7.75ZM18.9844 9.50781C19.2708 9.50781 19.5052 9.59896 19.6875 9.78125C19.8958 9.96354 20 10.1979 20 10.4844C20 10.7708 19.8958 11.0182 19.6875 11.2266C19.5052 11.4089 19.2708 11.5 18.9844 11.5H12.2656C11.9792 11.5 11.7318 11.4089 11.5234 11.2266C11.3411 11.0182 11.25 10.7708 11.25 10.4844C11.25 10.1979 11.3411 9.96354 11.5234 9.78125C11.7318 9.59896 11.9792 9.50781 12.2656 9.50781H18.9844ZM5.625 12.0078C5.9375 12.0078 6.19792 11.9036 6.40625 11.6953C6.64062 11.4609 6.75781 11.1875 6.75781 10.875C6.75781 10.5625 6.64062 10.3021 6.40625 10.0938C6.19792 9.85938 5.9375 9.74219 5.625 9.74219C5.3125 9.74219 5.03906 9.85938 4.80469 10.0938C4.59635 10.3021 4.49219 10.5625 4.49219 10.875C4.49219 11.1875 4.59635 11.4609 4.80469 11.6953C5.03906 11.9036 5.3125 12.0078 5.625 12.0078ZM18.9844 15.7578C19.2708 15.7578 19.5052 15.849 19.6875 16.0312C19.8958 16.2135 20 16.4479 20 16.7344C20 17.0208 19.8958 17.2682 19.6875 17.4766C19.5052 17.6589 19.2708 17.75 18.9844 17.75H14.9219C14.7917 18.4792 14.4401 19.0781 13.8672 19.5469C13.2943 20.0156 12.6302 20.25 11.875 20.25C11.0156 20.25 10.2734 19.9375 9.64844 19.3125C9.04948 18.7135 8.75 17.9844 8.75 17.125C8.75 16.2656 9.04948 15.5365 9.64844 14.9375C10.2734 14.3125 11.0156 14 11.875 14C12.5 14 13.0599 14.1693 13.5547 14.5078C14.0495 14.8203 14.4271 15.237 14.6875 15.7578H18.9844ZM5.23438 15.7578C5.52083 15.7578 5.75521 15.849 5.9375 16.0312C6.14583 16.2135 6.25 16.4479 6.25 16.7344C6.25 17.0208 6.14583 17.2682 5.9375 17.4766C5.75521 17.6589 5.52083 17.75 5.23438 17.75H1.01562C0.729167 17.75 0.481771 17.6589 0.273438 17.4766C0.0911458 17.2682 0 17.0208 0 16.7344C0 16.4479 0.0911458 16.2135 0.273438 16.0312C0.481771 15.849 0.729167 15.7578 1.01562 15.7578H5.23438ZM11.875 18.2578C12.1875 18.2578 12.4479 18.1536 12.6562 17.9453C12.8906 17.7109 13.0078 17.4375 13.0078 17.125C13.0078 16.8125 12.8906 16.5521 12.6562 16.3438C12.4479 16.1094 12.1875 15.9922 11.875 15.9922C11.5625 15.9922 11.2891 16.1094 11.0547 16.3438C10.8464 16.5521 10.7422 16.8125 10.7422 17.125C10.7422 17.4375 10.8464 17.7109 11.0547 17.9453C11.2891 18.1536 11.5625 18.2578 11.875 18.2578Z" />
</svg>

<svg width="20" height="21"><path d="M14.375 6.5c-.86 0-1.602-.3-2.227-.898a3.109 3.109 0 0 1-.898-2.227c0-.86.3-1.589.898-2.188.625-.625 1.368-.937 2.227-.937.755 0 1.42.234 1.992.703a2.914 2.914 0 0 1 1.055 1.797h1.562c.287 0 .521.104.703.313a.892.892 0 0 1 .313.703c0 .286-.104.52-.313.703a.952.952 0 0 1-.703.273h-1.797c-.26.521-.638.95-1.132 1.29a3.08 3.08 0 0 1-1.68.468Zm0-4.258c-.313 0-.586.117-.82.352a1.06 1.06 0 0 0-.313.781c0 .313.104.586.313.82.234.209.508.313.82.313.313 0 .573-.104.781-.313.235-.234.352-.508.352-.82 0-.313-.117-.573-.352-.781a1.002 1.002 0 0 0-.781-.352Zm-13.36 2.5a1.09 1.09 0 0 1-.742-.273A.952.952 0 0 1 0 3.766c0-.287.091-.521.273-.704.209-.208.456-.312.743-.312h6.718c.287 0 .521.104.704.313a.892.892 0 0 1 .312.703c0 .286-.104.52-.313.703a.952.952 0 0 1-.703.273H1.016Zm4.61 3.008c.86 0 1.589.313 2.188.938.625.598.937 1.328.937 2.187 0 .86-.313 1.602-.938 2.227-.598.598-1.328.898-2.187.898-.86 0-1.602-.3-2.227-.898a3.108 3.108 0 0 1-.898-2.227c0-.86.3-1.589.898-2.188.625-.624 1.368-.937 2.227-.937Zm13.36 1.758c.286 0 .52.091.703.273a.892.892 0 0 1 .312.703c0 .287-.104.534-.313.743a.952.952 0 0 1-.703.273h-6.718a1.09 1.09 0 0 1-.743-.273 1.09 1.09 0 0 1-.273-.743c0-.286.091-.52.273-.703a1.09 1.09 0 0 1 .743-.273h6.718Zm-13.36 2.5c.313 0 .573-.104.781-.313.235-.234.352-.508.352-.82 0-.313-.117-.573-.352-.781a1.002 1.002 0 0 0-.781-.352c-.313 0-.586.117-.82.352a1.06 1.06 0 0 0-.313.781c0 .313.104.586.313.82.234.209.508.313.82.313Zm13.36 3.75c.286 0 .52.091.703.273a.892.892 0 0 1 .312.703c0 .287-.104.534-.313.743a.952.952 0 0 1-.703.273h-4.062a2.914 2.914 0 0 1-1.055 1.797 3.054 3.054 0 0 1-1.992.703c-.86 0-1.602-.313-2.227-.938-.599-.599-.898-1.328-.898-2.187 0-.86.3-1.588.898-2.188.625-.624 1.368-.937 2.227-.937.625 0 1.185.17 1.68.508.495.312.872.729 1.133 1.25h4.296Zm-13.75 0c.286 0 .52.091.702.273a.892.892 0 0 1 .313.703c0 .287-.104.534-.313.743a.952.952 0 0 1-.703.273H1.016a1.09 1.09 0 0 1-.743-.273A1.09 1.09 0 0 1 0 16.734c0-.286.091-.52.273-.703a1.09 1.09 0 0 1 .743-.273h4.218Zm6.64 2.5c.313 0 .573-.104.781-.313.235-.234.352-.508.352-.82 0-.313-.117-.573-.352-.781a1.002 1.002 0 0 0-.781-.352c-.313 0-.586.117-.82.352a1.06 1.06 0 0 0-.313.781c0 .313.104.586.313.82.234.209.508.313.82.313Z"/></svg>
